X:38
T:Gathering Peascods
M:C|
L:1/4
K:G
|: D | "G" d2 d "D" d | "G" B > c d d | "C" e d "Am" c B | "D" A3 "G" B | "Am" AG"D7"GF | "G" G3 :|
|: G | "D" F D F G | A2 B A | "G" G/A/ B A G | "D" F3 F | "G" E D "Em" E > D | "D" D3 :|
|: d | "G" B G G A/B/ | "C" c3 c | "G" B G G A/B/ | "C" c3 "D" d | "G" B G G "C" A/B/ | "C" c > d e d/c/ | "G" B c/B/ "D" A > G | "G" G3 :|
%
%
